packages/ffe-icons/icons/open/400/sm/reorder.svg

<svg xmlns="http://www.w3.org/2000/svg" height="20" viewBox="0 -960 960 960" width="20"><path d="M180-240q-15.3 0-25.65-10.289-10.35-10.29-10.35-25.5Q144-291 154.35-301.5 164.7-312 180-312h600q15.3 0 25.65 10.289 10.35 10.29 10.35 25.5Q816-261 805.65-250.5 795.3-240 780-240H180Zm0-136q-15.3 0-25.65-10.289-10.35-10.29-10.35-25.5Q144-427 154.35-437.5 164.7-448 180-448h600q15.3 0 25.65 10.289 10.35 10.29 10.35 25.5Q816-397 805.65-386.5 795.3-376 780-376H180Zm0-136q-15.3 0-25.65-10.289-10.35-10.29-10.35-25.5Q144-563 154.35-573.5 164.7-584 180-584h600q15.3 0 25.65 10.289 10.35 10.29 10.35 25.5Q816-533 805.65-522.5 795.3-512 780-512H180Zm0-136q-15.3 0-25.65-10.289-10.35-10.29-10.35-25.5Q144-699 154.35-709.5 164.7-720 180-720h600q15.3 0 25.65 10.289 10.35 10.29 10.35 25.5Q816-669 805.65-658.5 795.3-648 780-648H180Z"/></svg>

<svg xmlns="http://www.w3.org/2000/svg" height="20" viewBox="0 -960 960 960" width="20"><path d="M180-240q-15.3 0-25.65-10.29Q144-260.58 144-275.79t10.35-25.71Q164.7-312 180-312h600q15.3 0 25.65 10.29Q816-291.42 816-276.21t-10.35 25.71Q795.3-240 780-240H180Zm0-136q-15.3 0-25.65-10.29Q144-396.58 144-411.79t10.35-25.71Q164.7-448 180-448h600q15.3 0 25.65 10.29Q816-427.42 816-412.21t-10.35 25.71Q795.3-376 780-376H180Zm0-136q-15.3 0-25.65-10.29Q144-532.58 144-547.79t10.35-25.71Q164.7-584 180-584h600q15.3 0 25.65 10.29Q816-563.42 816-548.21t-10.35 25.71Q795.3-512 780-512H180Zm0-136q-15.3 0-25.65-10.29Q144-668.58 144-683.79t10.35-25.71Q164.7-720 180-720h600q15.3 0 25.65 10.29Q816-699.42 816-684.21t-10.35 25.71Q795.3-648 780-648H180Z"/></svg>
